X: 49
T: the Reconciliation Reel
T: the Olive Branch Hornpipe
T: Humphrey's Reel
T: Crannciuil Umfrei
O: Ryans 1883
R: reel
D: Matt Molloy & Sean Keane: Contentment is Wealth.
B: O'Neill's 1850 (hornpipe)
B: Ryan’s "Mammoth Collection", 1883, titled “The Olive Branch”
Z: id:hn-reel-95
M: C|
L: 1/8
K: A
|: "A"A2 c{B}A eAfA | eAfA "E7"ecBc | "A"A2 c{B}A eAfA | "(Bm)"ecBc "E7"AFEF |
|  "A"A2 c{B}A eAfA | eAfA "E7"ecBc | "A"ABAF EAcf | "E7"ecBc "A"A4 :|
|: "A"A2{B}ce a2-af | "E7"efed cdcB | "A"A2{B}ce a3g | "Bm"fbba "E7"gbeg |
|  "A"agae f{g}aec | "Bm"dBcA "E7"BAFG | "A"ABAF EAcf | "E7"ecBc "A"A4 :|

%%sep 1 1 500

